icons/mark-github-24.svg

<svg width="25" height="24" viewBox="0 0 25 24">
  <path
    d="M12.5 0.75C6.14625 0.75 1 5.89625 1 12.25C1 17.3387 4.29187 21.6369 8.86312 23.1606C9.43812 23.2612 9.65375 22.9162 9.65375 22.6144C9.65375 22.3412 9.63938 21.4356 9.63938 20.4725C6.75 21.0044 6.0025 19.7681 5.7725 19.1212C5.64313 18.7906 5.0825 17.77 4.59375 17.4969C4.19125 17.2812 3.61625 16.7494 4.57938 16.735C5.485 16.7206 6.13188 17.5687 6.3475 17.9137C7.3825 19.6531 9.03563 19.1644 9.69688 18.8625C9.7975 18.115 10.0994 17.6119 10.43 17.3244C7.87125 17.0369 5.1975 16.045 5.1975 11.6462C5.1975 10.3956 5.64312 9.36062 6.37625 8.55562C6.26125 8.26812 5.85875 7.08937 6.49125 5.50812C6.49125 5.50812 7.45438 5.20625 9.65375 6.68687C10.5738 6.42812 11.5513 6.29875 12.5288 6.29875C13.5063 6.29875 14.4838 6.42812 15.4038 6.68687C17.6031 5.19187 18.5662 5.50812 18.5662 5.50812C19.1987 7.08937 18.7962 8.26812 18.6812 8.55562C19.4144 9.36062 19.86 10.3812 19.86 11.6462C19.86 16.0594 17.1719 17.0369 14.6131 17.3244C15.03 17.6837 15.3894 18.3737 15.3894 19.4519C15.3894 20.99 15.375 22.2262 15.375 22.6144C15.375 22.9162 15.5906 23.2756 16.1656 23.1606C20.7081 21.6369 24 17.3244 24 12.25C24 5.89625 18.8538 0.75 12.5 0.75Z" />
</svg>

<svg xmlns="http://www.w3.org/2000/svg" width="25" height="24" viewBox="0 0 25 24"><path d="M12.5.75C6.146.75 1 5.896 1 12.25c0 5.089 3.292 9.387 7.863 10.91.575.101.79-.244.79-.546 0-.273-.014-1.178-.014-2.142-2.889.532-3.636-.704-3.866-1.35-.13-.331-.69-1.352-1.18-1.625-.402-.216-.977-.748-.014-.762.906-.014 1.553.834 1.769 1.179 1.035 1.74 2.688 1.25 3.349.948.1-.747.402-1.25.733-1.538-2.559-.287-5.232-1.279-5.232-5.678 0-1.25.445-2.285 1.178-3.09-.115-.288-.517-1.467.115-3.048 0 0 .963-.302 3.163 1.179.92-.259 1.897-.388 2.875-.388.977 0 1.955.13 2.875.388 2.2-1.495 3.162-1.179 3.162-1.179.633 1.581.23 2.76.115 3.048.733.805 1.179 1.825 1.179 3.09 0 4.413-2.688 5.39-5.247 5.678.417.36.776 1.05.776 2.128 0 1.538-.014 2.774-.014 3.162 0 .302.216.662.79.547C20.709 21.637 24 17.324 24 12.25 24 5.896 18.854.75 12.5.75Z"/></svg>
